X: 18
T: Tra Veglia e Sonno    [Dm,D]
T: Between Awake and Asleep
C: Mo. Luigi Canora
R: mazurka
Z: 2011 John Chambers <jc:trillian.mit.edu>
S: printed MS of unknown origin
M: 3/4
L: 1/8
P: AABBACCA
K: Dm
"A"\
|: "Dm"d>e fd AF | "Gm"E2-E4 | "A7"G>A BG E^C | "Dm"D2-D4 \
| "Dm"A,>D FA de | "A7"d>^c e4 |1,3 {e}d>^c e4 | "Dm"{f}e>d f4 :|
[2,4 "A7"{d}^c>B AG FE | "Dm"Dz [dF]!fine!z z2 :|\
"B"\
|: "Dm"AB/A/ ^GA BA | "A"^c>d e4 \
| "A7"AB/A/ ^GA BA | "Dm"d>e f4 |
| "D7"d_e/d/ ^cd ed | "Gm"d>B G2>> B2 | "A"A>B A>G F>E \
|1,3 "Dm"G3 _G F2 :|2,4 "Dm"Dz [dF]z z2 :|
"A"\
|: "Dm"d>e fd AF | "Gm"E2-E4 \
| "A7"G>A BG E^C | "Dm"D2-D4 \
| "Dm"A,>D FA de | "A7"d>^c e4 \
|1 {e}d>^c e4 | "Dm"{f}e>d f4 :|
[2 "A7"{d}^c>B AG FE | "Dm"Dz [dF]z z2 |][K:=B][K:D]\
"C"\
|: "A7".c>.e .B.d .A.c | "A7"Gz [G3C3] .d \
| "A7".c>.e .B.d .A.c | "D"B>B F3 ^E |
| "D".F>.G .^G.A .^A.B | "A7"cz [c3A3] F \
|1,3 "A7".G>.A .B.c .d.e | "D"fz [f3A3] .d \
:|2,4 "A7"G>A ^AB fe | "D"dz [dF]z z2 :|

%%sep 1 1 400


